X:160
T: Drunken Gauger
S: "Treoir"
Z: B.Black
M: 6/8
L: 1/8
R: jig (set dance)
K: G
D | GAB c>BA | BAG AGE | GBd g2 e | dce dBG |
c3 B3 | AGA BGE | DEG AGA | BGG G2 :|
D | GBd g2 e | dce dBG | A^ce a3 | agb age |
dcd g2 e | dce dBG | c3 BdB | AGA BGE |
GAB c2 A | BAG AGE | GBd g2 e | dce dBG |
c3 B3 | AGA BGE | DEG AGA | BGG G2 :|
